X:533
T: SCHLAF KINDCHEN BALDE
N: E1809
O: Europa, Mitteleuropa, Deutschland, Sueddeutschland
R: Kinder -, Wiegen -, Schlaf - Lied
M: 4/4
L: 1/8
K: F
 | c4A2G2 | F4C2z2
c2c2A2G2 | F4C2
C2 | F2F2G2G2 | c2A2F2
C2 | F2F2G2G2 | c2A2F2
c2 | A2F2G2C2 | F4F2z2
A2A2GFG2 | F4C2z2
F2F2G2G2 | B2A2G2
G2 | A2F2G2C2 | F2F2F2z2

